X:1
T:Liguria, LMD
T:Liguria, LMD
T:Anonymous, 1874
T:Public Domain Courtesy of the Cyber Hymnal™
C:Anonymous, 1874
Z:Public Domain
Z:Courtesy of the Cyber Hymnal™
%%score ( 1 2 ) ( 3 4 )
L:1/8
Q:1/4=100
M:6/8
K:A
V:1 treble 
V:2 treble 
V:3 bass 
V:4 bass 
V:1
 [CE] | [Ec]2 [DB] [CA]2 [EG] | ([EG][DF])[DF] [DF]2 [EF] | [Fd]2 [Fc] [FB]2 [FA] | %4
 (GA)[DB] [CE]2 [CE] | [Ec]2 [DB] [CA]2 [EG] | ([EG][DF])[DF] !fermata![Fd]2 !fermata![Ed] | %7
 (dc)[EB] [Ee]2 [CA] | [Ec]2 [DB] !fermata![CA]2 [CA] | [EB]2 [EB] [EB]2 [^Ec] | %10
 [FA]2 [FA] [FA]2 [GB] | [Ac]2 [Ac] (cd)[Ae] | [GB]2 [GB] [GB]2 [Ec] | [Fd]2 [Fd] [Fd]2 [EB] | %14
 [Ec]2 [Ec] [Ec]2 [EA] | [FB]2 [Ec] !fermata![Fd]2 [DF] | %16
 !fermata![B,E]2 !fermata![DB] !fermata![CA]2 |] %17
V:2
 x | x6 | x6 | x6 | E2 x4 | x6 | x6 | E2 x4 | x6 | x6 | x6 | x3 E2 x | x6 | x6 | x6 | x6 | x5 |] %17
V:3
 [A,,A,] | [A,,A,]2 [A,,E,] [A,,E,]2 [C,A,] | [D,A,]2 [D,A,] [D,A,]2 [C,^A,] | %3
 [B,,B,]2 [C,^A,] [D,B,]2 [^D,B,] | (B,A,)[E,G,] A,2 [A,,A,] | [A,,A,]2 [A,,E,] [A,,E,]2 [E,A,] | %6
 [D,A,]2 [D,A,] !fermata![D,A,]2 !fermata![E,G,] | (B,A,)[D,G,] [C,A,]2 [F,A,] | %8
 [E,A,]2 [E,G,] !fermata![A,,A,]2 [A,,A,] | [E,G,]2 [E,G,] [E,G,]2 [C,C] | %10
 [F,C]2 [F,C] [F,C]2 [E,E] | [A,E]2 [A,,E] ([A,,A,][B,,G,])[C,A,] | [E,B,]2 [E,B,] [E,B,]2 A, | %13
 [D,A,]2 [D,A,] [D,A,]2 [E,G,] | A,2 A, A,2 [C,A,] | [D,B,]2 [C,^A,] !fermata![B,,B,]2 [D,A,] | %16
 !fermata![E,G,]2 !fermata![E,G,] !fermata![A,,A,]2 |] %17
V:4
 x | x6 | x6 | x6 | E,2 A,2 x2 | x6 | x6 | E,2 x4 | x6 | x6 | x6 | x6 | x5 A, | x6 | A,2 A, A,2 x | %15
 x6 | x5 |] %17

